X:1
T:Andante in B-flat
T:Andante in B-flat
T:K. 15ii
T:W.A. Mozart
C:W.A. Mozart
%%score { ( 1 4 ) | ( 2 3 ) }
L:1/8
Q:1/4=54
M:2/4
K:Bb
V:1 treble nm="Piano" snm="Pno."
V:4 treble 
V:2 bass 
V:3 bass 
V:1
"^Andante"!mp! B{e}d/c/4B/4 fF |{c} BA/B/ z/ B/B/B/ | =B/c/c z/ c/c/c/ | ^c/d/d B/d/f/b/ | %4
 c/e/g g/f/f/A/ | AB d/f/=e/g/ | fc z/ a/a/f/ | f=e/d/ d/c/c/B/ | BA f/_e/d/^c/ | %9
 d/4f/4=e/4f/4 g/4f/4e/4f/4 d/4f/4e/4f/4 g/4f/4e/4f/4 | c/f/f/a/ c'/4b/4a/4g/4 f/4=e/4d/4c/4 | %11
 c/B/ z/ [db]/ [ca]/[Bg]/[Af]/[G=e]/ | [Af]2 FG | [FA]2 [FA][GB] | [Ac]2 f/a/c/f/ | dc/B/ AG | %16
 F2 z2 :: F{B}A/G/4F/4 cC |{G} F/=E/F z/ f/f/f/ | ^f/g=f/ =e/d/c/B/ |{B} A/G/4F/4 F/F/ F2 | %21
 c/4=B/4c/4d/4c z/ c/c/g/ | g/^f/f z/ c/c/g/ | g/^f/f/e/ d/c/B/A/ | BG z/ B/B/=f/ | %25
 f/=e/e/d/ d/c/c/B/ | (3A/G/F/F/F/ F2 | B{e}d/c/4B/4 fF |{c} B/A/B z/ B/B/_A/ | _A/G/G z/ g/g/f/ | %30
 f/e/e z [Gg] | g/e/g z [Gg] | g/e/g g/fe/ | d/B/ [db]2 [Bd] | [Bd][Ac] b/_a/g/^f/ | %35
 g/4B/4A/4B/4 c/4B/4A/4B/4 G/4B/4A/4B/4 c/4B/4A/4B/4 | F/B/B/d/ f/4e/4d/4c/4 B/4_A/4G/4^F/4 | %37
 G>[Ge] [Fd]/[Ec]/[DB]/[CA]/ | [DB]2[I:staff +1] B,C | [B,D]2 [B,D][CE] | %40
[I:staff -1] [DF]2 B/d/F/B/ |{A} GF/E/ DC | B,2 z2 :| %43
V:2
!ped! B,B,!ped-up!!ped!A,A,!ped-up! |!ped! G,F,/E,/!ped-up!!ped! D,2!ped-up! | %2
!ped! E,E,!ped-up!!ped! F,2!ped-up! |!ped! B,B,,!ped-up!!ped!D,B,,!ped-up! | %4
!ped! F,C,!ped-up!!ped!F,F,,!ped-up! |!ped! G,,2!ped-up!!ped! B,B,!ped-up! | %6
!ped! A,F,/G,/!ped-up!!ped! A,F,!ped-up! |!ped! G,2!ped-up!!ped! C,2!ped-up! | %8
!ped! F,F,!ped-up!!ped!A,,A,,!ped-up! | %9
!ped! B,,!ped-up!!ped!B,!ped-up!!ped!B,,!ped-up!!ped!B,!ped-up! | %10
!ped! A,F,!ped-up!!ped!A,!ped-up!!ped!F,!ped-up! |!ped! B,B,!ped-up!!ped!CC,!ped-up! | %12
!ped! F,2 z2!ped-up! |!ped! F,2 z2!ped-up! |!ped! F,2!ped-up!!ped! A,2!ped-up! | %15
!ped! B,2!ped-up!!ped! CC,!ped-up! |!ped! F,C,F,,!ped-up! z :: %17
!ped! F,F,!ped-up!!ped!=E,E,!ped-up! |!ped! D,D,!ped-up!!ped!A,,A,!ped-up! | %19
!ped! B,2!ped-up!!ped! C2!ped-up! |!ped! F,F,/F,/!ped-up! F,2 | %21
!ped! F,F,!ped-up!!ped! _E,E,!ped-up! |!ped! D,D,!ped-up!!ped! E,E,!ped-up! | %23
!ped! D,2!ped-up!!ped! ^F,2!ped-up! |!ped! G,2!ped-up!!ped! _D,2!ped-up! | %25
!ped! C,C!ped-up!!ped! CC!ped-up! |!ped! F,!ped-up!!ped!F,/F,/ F,2!ped-up! | %27
!ped! B,B,!ped-up!!ped! A,A,!ped-up! |!ped! G,F,/E,/!ped-up!!ped! D,2!ped-up! | %29
!ped! E,E,!ped-up!!ped! =B,,2!ped-up! |!ped! C,C!ped-up!!ped! =B,G,!ped-up! | %31
!ped! CE,!ped-up!!ped!D,F,!ped-up! |!ped! E,C,!ped-up!!ped! A,2!ped-up! | %33
!ped! CD,!ped-up!!ped! B,,2!ped-up! |!ped! F,F,/_E,/!ped-up!!ped! D,D,!ped-up! | %35
!ped! E,!ped-up!!ped!E!ped-up!!ped!E,!ped-up!!ped!E!ped-up! | %36
!ped! D,D,!ped-up!!ped!D,!ped-up!!ped!D,!ped-up! |!ped! E,2!ped-up!!ped! F,F,,!ped-up! | %38
!ped! B,,2 z2!ped-up! |!ped! B,,2 z2 | B,,2!ped-up!!ped! D,2!ped-up! | %41
!ped! E,2!ped-up!!ped! F,F,,!ped-up! |!ped! B,F,B,,!ped-up! z :| %43
V:3
 x4 | x4 | x4 | x4 | x4 | x4 | x4 | x4 | x4 | x4 | x4 | x4 | x4 | x4 | x4 | x4 | F,,2 z2 :: x4 | %18
 x4 | x4 | x4 | x4 | x4 | x4 | x4 | x4 | x4 | x4 | x4 | x4 | x4 | x4 | x4 | x4 | x4 | x4 | x4 | %37
 x4 | x4 | x4 | x4 | x4 | D,2 z2 :| %43
V:4
 x4 | x4 | x4 | x4 | x4 | x4 | x4 | x4 | x4 | x4 | x4 | x4 | x4 | x4 | x4 | x4 | x4 :: x4 | x4 | %19
 x4 | x4 | x4 | x4 | x4 | x4 | x4 | x4 | x4 | x4 | x4 | x4 | G2 x2 | G2 x2 | x4 | x2 B2 | x4 | x4 | %37
 x4 | x4 | x4 | x4 | x4 | x4 :| %43

